!!!!SEGMENT:pl-kk--kk-i-483_anonim-boga-rodzico-dziewico.krn
!!!id: 18xx:1371
!!!COM: Anonim
!!!OTL: Boga rodzico dziewico
!!!PDT: 1864
!!!SMS-siglum: PL-Kk
!!!SMS-shelfmark: Kk.I.483
!!!NIFC-rismID: 1001140397
!!!URL-scan: http://repozytorium.nifc.pl/skany/pl-kk-nut--i-483
!!!ONB-nifc: UWAGA: utwór znajduje się na skanie 0003. Zakończenie u dołu skanu 0001.
!!!SMS-variant:
!!!SMS-altvar:
**kern	**kern	**text
*part2	*part1	*part1
*staff2	*staff1	*staff1
*I"[Coro maschile]	*I"[Coro maschile]	*
*clefF4	*clefG2	*
*k[]	*k[]	*
*M4/4	*M4/4	*
*met(c)	*met(c)	*
=1	=1	=1
!	!LO:TX:t=P:problem:brak nazw głosów poza informacją na skanie 1: "męzkie głosy"	!
4E 4C\	4cc 4g\	Bo-
8D 8C\	8b 8g/	-ga
8E 8C\	8cc 8g/	Ro-
4F 4C\	4dd 4g/	-dzi-
4G 4C\	4ee 4b-X/	-co
=2	=2	=2
2A 2C\	2gg 2cc\	Dzie-
4A-X 4C\	4ff 4cc\	-wi-
4G 4C\	4ee 4cc\	-co
=3	=3	=3
4.F#X 4.C\	4.dd 4.a\	o-
8F# 8C\	8dd 8a\	-pie-
4Fn 4C\	4ee 4b\	-kón-
4F 4C\	4dd 4b\	-ko
=4	=4	=4
2E 2C\	2cc 2g\	lu-
4G 4GG\	4dd 4b\	.
8G 8GG\	8dd 8b\	-dzi,
8r	8r	.
=5	=5	=5
4E 4C\	4cc 4g\	Niech
8D 8C\	8b 8g/	Cię
8E 8C\	8cc 8g/	głos
4F 4C\	4dd 4g/	sie-
4G 4C\	4ee 4b-X\	-rót
=6	=6	=6
2A 2C\	2gg 2cc\	sie-
4A-X 4C\	4ff 4cc\	-rot
8G 8C\	8ee 8cc\	do
8G 8C\	8ee 8cc\	li-
=7	=7	=7
4.F#X 4.D\	4.dd 4.cc\	-toś-
8F# 8D\	8dd 8cc\	-ci
2Fn 2GG\	(4.ee 4.b\	wzbu-
.	8dd 8b\)	.
!LO:LB:g=original	!LO:LB:g=original	!
=8	=8	=8
2E 2C\	2cc 2g\	-dzi,
4E 4C\	4cc 4g\	.
4r	4r	.
=9	=9	=9
4B 4G\	4dd 4b\	W nie-
8.B 8.G\	8.gg 8.dd\	-szczę-
16B 16G\	16gg 16dd\	-sciach
4c 4G\	4ff#X 4ee-X\	na-
4B 4G\	4gg 4dd\	-szych
=10	=10	=10
8B 8G\	8dd 8b\	nie
8B 8G\	8dd 8b\	o-
8.A 8.F#X\	8.ee-X 8.cc\	-pusz-
16A 16F#\	16ee- 16cc\	-czaj
2B 2G\	2dd 2b\	nas
=11	=11	=11
4G 4E\	4gg 4b\	lecz
8G 8E-X\	8gg 8cc\	wspie-
8G 8E-\	8gg 8cc\	-raj
4G 4D\	4gg 4b\	nas
4G 4C#X/	8ff#XL 8b-X\	do-
.	8ee\J	.
=12	=12	=12
4.F#X 4.D\	4.dd 4.a\	-bro-
8F# 8D\	8ee 8cc\	-cią
4G 4GG\	(>4dd 4b\	swo-
4r	4dd#X\)	-ją
!LO:LB:g=original	!LO:LB:g=original	!
=13	=13	=13
*	*^	*
4.E 4.C\	4ee\	4.g\	Two-
.	8dd/	.	.
8E 8C\	8cc/	8g\	-ja
4F 4D\	4cc/ 4g/	2ryy	tyl-
4F 4D\	4b/ 4g/	.	-ko
*	*v	*v	*
=14	=14	=14
4G 4GG\	4ff 4b\	Two-
8.A 8.GG\	8.ff 8.cc\	-ja
16B 16GG\	16ff 16dd\	o-
4G 4C\	4ff 4dd\	-pie-
4G 4C\	4ee 4cc\	-ka
=15	=15	=15
4G 4C#X\	4ee 4b-X\	od
8G 8C#\	8ff 8b-\	wsze-
8G 8C#\	8ee 8b-\	-go
4.F 4.D\	4.ee 4.a\	złe-
8F 8D\	8dd 8a\	-go
=16	=16	=16
4F\	4cc 4a\	o-
8F\	8dd 8a\	-bro-
8A 8F\	8dd#X 8a\	-ni
4G#X 4E\	(>4ee 4bn\	nas
4G# 4E\	8ee 8b\)	.
.	8r	.
=17	=17	=17
4E 4C\	4ee 4g\	Czyż
8E 8C\	8dd 8g\	Cię
8E 8C\	8cc 8g\	nie
4F 4D\	4cc 4g\	wzru-
4F 4D\	4b 4g\	-szą
!LO:LB:g=original	!LO:LB:g=original	!
=18	=18	=18
4G 4GG\	4gg 4b\	na-
8.A 8.G\	8.ff#X 8.cc\	-sze
16B 16G\	16ffn 16dd\	bła-
4B 4G#X\	4ff 4dd\	-ga-
4c 4A\	4ee 4cc\	-nia,
=19	=19	=19
4A 4AA\	4ee 4cc#X\	Czy-
8A 8AA\	8ff 8dd\	-lisz
8A 8AA\	8ee 8cc#\	o-
8A 8C#X\	8gg 8ee\	-bro-
8A 8D\	8ff 8dd\	-ny
8A 8E\	8ee 8cc#\	nam
8A 8F\	8dd\	od-
=20	=20	=20
4.G\	4.ee 4.cc\	-mó-
8F\	8dd 8b\	-wisz
4E 4C\	(>4cc 4g\	Twej
8E 8C\	8cc 8g\)	.
8r	8r	.
=21	=21	=21
4E\	1r	.
8G#X\	.	.
8A\	.	.
4B\	.	.
4E\	.	.
=22	=22	=22
4G#X 4E\	4ee 4b\	Bo-
8G# 8E\	8ee 8b\	-ga
8G# 8E\	8ee 8b\	ro-
4A 4E\	4ff 4cc\	-dzi-
4G# 4E\	4ee 4b\	-co
!LO:LB:g=original	!LO:LB:g=original	!
=23	=23	=23
8E\	1r	.
8E\	.	.
8A\	.	.
8B\	.	.
4c\	.	.
4E\	.	.
=24	=24	=24
8A 8E\	8ff 8cc\	O-
8A 8E\	8ff 8cc\	-pie-
8A 8E\	8ff 8cc\	-kón-
8A 8E\	8ee 8cc\	-ko
4A 4E\	4dd#X 4cc\	na-
4G#X 4E\	4ee 4b\	-sza,
=25	=25	=25
4Gn 4C#X\	4ee 4b-X\	Us-
8.G 8.C#\	8.ee 8.b-\	-łysz
16G 16D\	16dd 16b-\	te
4G 4E\	4cc#X 4b-\	mo-
8.F\	8.dd 8.a\	-dły
16F\	16dd 16a\	i
=26	=26	=26
4.A 4.E\	4.ee 4.cc\	zli-
8A 8E\	8ee 8cc\	-tuj
4.G#X 4.E\	4.ff 4.bn\	zli-
8G# 8E\	8ee 8b\	-tuj
=27	=27	=27
4A 4AA\	[>4ee 4cc\	się
8A 8AA\	8ee] 8cc\	.
8r	8r	.
2F 2GG\	[>2gg 2b\	O
=28	=28	=28
*	*^	*
!	!	!LO:TX:b:t=P:problem:złe renderowanie tekstu w tym takcie (warstwy)	!
4E 4C\	1gg]	4cc\	słu-
8D 8C\	.	8b\	-chaj
!LO:PB:g=original	!LO:PB:g=original	!LO:PB:g=original	!
8E 8C\	.	8cc\	nas
4F 4C\	.	4dd\	bo-
4B-X 4C\	.	4ee\	-ża
*	*v	*v	*
=29	=29	=29
4A-X 4C\	(>4ff 4cc\	Mat-
4E-X 4BB-X\	4gg 4dd-X\)	.
2E- 2AA-X/	2aa 2cc\	-Ko
=30	=30	=30
4.E 4.AA\	4.ff#X 4.cc\	ra-
8E 8AA\	8ff# 8cc\	-tuj
4En 4GG\	4gg 4cc\	nas
4r	4r	.
=31	=31	=31
*	*^	*
2F 2GG/	4.ee/	2b\	zbaw
.	8dd/	.	.
4E 4C/	4cc/	4g\	nas
4r	4r	4ryy	.
=32	=32	=32	=32
2E 2C\	2cc/	2g\	ach
2F 2C\	2cc/	4a\	zbaw
.	.	4a-X\	.
*	*v	*v	*
=33	=33	=33
1E 1C;>	1cc 1g;>	nas
==	==	==
*-	*-	*-
!!!system-decoration: [(s1,s2)]
!!!RDF**kern: > = above
!!!RDF**kern: < = below
!!!ENC: Tomasz Grochalski
!!!END: 2021-01-10
!!!EED: Mateusz Mrugas
!!!EST: 2021-01-15
